X:32
T:Brothers (Fullmetal Alchemist)
%: Key F
C:Ooshima Michiru
Z:John Kikuchi
L:1/4
M:3/4
I:linebreak $
K:Cmaj
|: A, C B,/2C/2 | D2 E | C2 B, | A,3 | A, C B,/2C/2 | D2 G | E2 D | E3 | A, C B,/2C/2 | D2 E | C2 B, | A,2 A, | 
G,2 A, | B,3/2 C/2 B, | A,3- | A,3 |1 z3 :|2 E3/2 D/2 E || D2 A, | E2 G | D3 | E3/2 D/2 E | D2 A,/2B,/2 | 
C2 D | B,3 | E3/2 D/2 E | D2 A, | E2 G | D3 | E3/2 D/2 E | ^F2 D | E3- | E2 E | A2 A | G2 D | E3- | 
E2 E | A3/2 B/2 A | G2 D | E3- | E2 E | D3/2 E/2 D | C2 B, | A,3- | A,2 E | D3/2 E/2 D | C2 B, | A,3- | 
A, z2 | e3 | _g3/2 e/2 d | c d e | B3 | A e2 | _g3/2 e/2 d | e3- | e z2 | c' b a | b2 g | e3 | 
g b c' | b c' d'- | d' b a- | a3 | z3 | A c B/2c/2 | d2 e | c2 B | A3 | A c B/2c/2 | d2 g | 
e2 d | e3 | A c B/2c/2 | d2 e | c2 B | A2 A | G2 A | B2 c/2B/2- | B/2A/2- A2 | z/2 z/2 e3/2 d/2 | e d2 | 
A e2 | g d2- | d e3/2 d/2 | e d3/2 A/2 | B/2 c2 d/2- | d/2B/2- B2- | B/2 z/2 e3/2 d/2 | e d2 | A e2 | 
g d2- | d e3/2 d/2 | e ^f2 | d e2- | e e a- | a a g- | g d e- | e2 e | a3/2 b/2 a | 
g2 d | e3 | e d3/2 e/2 | d c2 | B A2- | A z2 | e d3/2 e/2 | d c2 | B A2- | A z2 | 

